src/images_karasa_jaga_svg/cmd/sc_flowchartshapes.flowchart-punched-tape.svg

<?xml version="1.0" encoding="UTF-8" standalone="no"?>
<!-- Created with Inkscape (http://www.inkscape.org/) -->

<svg
   xmlns:dc="http://purl.org/dc/elements/1.1/"
   xmlns:cc="http://creativecommons.org/ns#"
   xmlns:rdf="http://www.w3.org/1999/02/22-rdf-syntax-ns#"
   xmlns:svg="http://www.w3.org/2000/svg"
   xmlns="http://www.w3.org/2000/svg"
   xmlns:xlink="http://www.w3.org/1999/xlink"
   xmlns:sodipodi="http://sodipodi.sourceforge.net/DTD/sodipodi-0.dtd"
   xmlns:inkscape="http://www.inkscape.org/namespaces/inkscape"
   width="128"
   height="128"
   viewBox="0 0 33.866666 33.866668"
   version="1.1"
   id="svg8"
   inkscape:version="0.92.3 (unknown)"
   sodipodi:docname="sc_flowchartshapes.flowchart-punched-tape.svg"
   inkscape:export-filename="/home/rizmut/Dokumen/Rizmut/Github/libreoffice-style-karasa-jaga/build/images_karasa_jaga/cmd/sc_flowchartshapes.flowchart-punched-tape.png"
   inkscape:export-xdpi="12.000001"
   inkscape:export-ydpi="12.000001">
  <defs
     id="defs2">
    <linearGradient
       id="linearGradient7422">
      <stop
         style="stop-color:#7c9fcf;stop-opacity:1"
         offset="0"
         id="stop7424" />
      <stop
         id="stop5348"
         offset="0.5"
         style="stop-color:#7c9ece;stop-opacity:1" />
      <stop
         id="stop7426"
         offset="1"
         style="stop-color:#7b9dcf;stop-opacity:1" />
    </linearGradient>
    <linearGradient
       id="linearGradient3369">
      <stop
         id="stop3372"
         offset="0"
         style="stop-color:#ffffff;stop-opacity:1;" />
      <stop
         style="stop-color:#ffffff;stop-opacity:1;"
         offset="0.50643778"
         id="stop3374" />
      <stop
         style="stop-color:#f1f1f1;stop-opacity:1;"
         offset="0.82296139"
         id="stop3376" />
      <stop
         id="stop3378"
         offset="0.90625"
         style="stop-color:#eaeaea;stop-opacity:1;" />
      <stop
         id="stop3384"
         offset="1"
         style="stop-color:#dfdfdf;stop-opacity:1;" />
    </linearGradient>
    <linearGradient
       inkscape:collect="always"
       xlink:href="#linearGradient3369"
       id="linearGradient8853"
       x1="16.933334"
       y1="297"
       x2="16.933334"
       y2="263.13333"
       gradientUnits="userSpaceOnUse"
       gradientTransform="matrix(3.2395983,0,0,3.2395983,9.142803,-843.30344)" />
    <linearGradient
       inkscape:collect="always"
       xlink:href="#linearGradient7422"
       id="linearGradient915"
       x1="8.0253897"
       y1="64"
       x2="119.98242"
       y2="64"
       gradientUnits="userSpaceOnUse" />
  </defs>
  <sodipodi:namedview
     id="base"
     pagecolor="#ffffff"
     bordercolor="#666666"
     borderopacity="1.0"
     inkscape:pageopacity="0.0"
     inkscape:pageshadow="2"
     inkscape:zoom="2.8"
     inkscape:cx="85.955398"
     inkscape:cy="96.021028"
     inkscape:document-units="mm"
     inkscape:current-layer="layer1"
     showgrid="true"
     units="px"
     inkscape:window-width="1366"
     inkscape:window-height="706"
     inkscape:window-x="0"
     inkscape:window-y="0"
     inkscape:window-maximized="1"
     inkscape:snap-global="false">
    <inkscape:grid
       type="xygrid"
       id="grid1421"
       spacingx="2.1166667"
       spacingy="2.1166667"
       empspacing="2" />
  </sodipodi:namedview>
  <metadata
     id="metadata5">
    <rdf:RDF>
      <cc:Work
         rdf:about="">
        <dc:format>image/svg+xml</dc:format>
        <dc:type
           rdf:resource="http://purl.org/dc/dcmitype/StillImage" />
        <dc:title></dc:title>
      </cc:Work>
    </rdf:RDF>
  </metadata>
  <g
     inkscape:label="Layer 1"
     inkscape:groupmode="layer"
     id="layer1"
     transform="translate(0,-263.13332)">
    <g
       id="g973">
      <path
         transform="matrix(0.26458333,0,0,0.26458333,0,263.13332)"
         d="M 78.025391,8.0175781 A 7.9827075,7.9827075 0 0 0 75.318359,8.4902344 C 69.266535,10.671955 63.919382,14.009535 59.150391,17.666016 l 0.167968,-0.125 c -5.793485,4.206174 -11.587366,6.899188 -17.55664,7.330078 -5.969274,0.430889 -12.5747,-1.13135 -21.033203,-7.314453 A 7.9827075,7.9827075 0 0 0 8.0351562,23.998047 l -0.00977,53.914062 a 7.9827075,7.9827075 0 0 0 0,0.0059 l 0.00977,23.837891 V 104 a 7.9827075,7.9827075 0 0 0 3.2714848,6.44336 c 6.503545,4.75404 12.964012,7.81556 19.308593,9.32226 a 7.9827075,7.9827075 0 0 0 1.84375,0.2168 h 15.169922 a 7.9827075,7.9827075 0 0 0 1.855469,-0.21875 c 7.241086,-1.73097 13.593206,-5.22469 19.212891,-9.30469 a 7.9827075,7.9827075 0 0 0 0.167968,-0.125 c 5.909129,-4.53062 12.034234,-7.67372 17.908204,-8.23046 5.873969,-0.55675 12.006768,0.91153 19.958982,7.89453 A 7.9827075,7.9827075 0 0 0 119.98242,104 V 24 a 7.9827075,7.9827075 0 0 0 -2.71484,-5.998047 C 110.41048,11.98063 101.55313,9.946938 95.642578,8.3085938 A 7.9827075,7.9827075 0 0 0 93.509766,8.0175781 Z"
         id="path905"
         style="opacity:1;fill:url(#linearGradient915);fill-opacity:1.0;stroke:none;stroke-width:7.68616486;stroke-linecap:round;stroke-linejoin:round;stroke-miterlimit:4;stroke-dasharray:none;stroke-dashoffset:0;stroke-opacity:1"
         inkscape:original="M 78.025391 16 C 73.026721 17.802052 68.336246 20.681304 64.007812 24 C 50.954031 33.477279 35.27025 38.073562 16.017578 24 L 16.007812 77.914062 L 16.017578 101.75391 L 16.017578 104 C 21.813606 108.23685 27.284098 110.77107 32.458984 112 L 47.628906 112 C 53.517829 110.59226 58.95995 107.66484 64.007812 104 C 77.141425 93.930243 93.578303 87.823546 112 104 L 112 24 C 107.62122 20.154926 99.217258 17.582058 93.509766 16 L 78.025391 16 z "
         inkscape:radius="7.9819093"
         sodipodi:type="inkscape:offset" />
      <path
         id="rect8834"
         transform="matrix(0.26458333,0,0,0.26458333,0,263.13332)"
         d="M 78.025391 16 C 73.026721 17.802052 68.336246 20.681304 64.007812 24 C 50.954031 33.477279 35.27025 38.073562 16.017578 24 L 16.007812 77.914062 L 16.017578 101.75391 L 16.017578 104 C 21.813606 108.23685 27.284098 110.77107 32.458984 112 L 47.628906 112 C 53.517829 110.59226 58.959949 107.66484 64.007812 104 C 77.141425 93.930243 93.578303 87.823546 112 104 L 112 24 C 107.62122 20.154926 99.217258 17.582058 93.509766 16 L 78.025391 16 z "
         style="opacity:1;fill:url(#linearGradient8853);fill-opacity:1;stroke:none;stroke-width:7.68616486;stroke-linecap:round;stroke-linejoin:round;stroke-miterlimit:4;stroke-dasharray:none;stroke-dashoffset:0;stroke-opacity:1" />
    </g>
  </g>
</svg>

<svg height="16" viewBox="0 0 4.2333333 4.2333335" width="16" xmlns="http://www.w3.org/2000/svg" xmlns:xlink="http://www.w3.org/1999/xlink"><linearGradient id="a" gradientUnits="userSpaceOnUse" x1="64" x2="64" y1="118.85725" y2="9.142849"><stop offset="0" stop-color="#fff"/><stop offset=".50643778" stop-color="#fff"/><stop offset=".82296139" stop-color="#f1f1f1"/><stop offset=".90625" stop-color="#eaeaea"/><stop offset="1" stop-color="#dfdfdf"/></linearGradient><linearGradient id="b" gradientUnits="userSpaceOnUse" x1="8.02539" x2="119.98242" y1="64" y2="64"><stop offset="0" stop-color="#7c9fcf"/><stop offset=".5" stop-color="#7c9ece"/><stop offset="1" stop-color="#7b9dcf"/></linearGradient><path d="m78.025391 8.0175781c-.922882-.0001126-1.838794.1598085-2.707032.4726563-6.051824 2.1817206-11.398977 5.5193006-16.167968 9.1757816l.167968-.125c-5.793485 4.206174-11.587366 6.899188-17.55664 7.330078-5.969274.430889-12.5747-1.13135-21.033203-7.314453-5.273002-3.854255-12.6907148-.09004-12.6933598 6.441406l-.00977 53.914062v.0059l.00977 23.837891v2.2441c.0002751 2.54667 1.2156292 4.94037 3.2714848 6.44336 6.503545 4.75404 12.964012 7.81556 19.308593 9.32226.60406.14373 1.222827.21649 1.84375.2168 4.827739.70212 9.86488.79 15.169922 0 .62492-.00004 1.247674-.0735 1.855469-.21875 7.241086-1.73097 13.593206-5.22469 19.212891-9.30469.05653-.0409.112528-.0826.167968-.125 5.909129-4.53062 12.034234-7.67372 17.908204-8.23046 5.873969-.55675 12.006768.91153 19.958982 7.89453 5.15841 4.52978 13.24981.86694 13.25-5.99805v-80c.00008-2.296808-.98915-4.482361-2.71484-5.998047-6.8571-6.021323-15.71445-8.055015-21.625002-9.6933592-.694538-.1928537-1.411996-.2907488-2.132812-.2910157-5.161458-1.0220408-10.322917-.9663385-15.484375 0z" fill="url(#b)" transform="scale(.03307292)"/><path d="m78.025391 16c-4.99867 1.802052-9.689145 4.681304-14.017579 8-13.053781 9.477279-28.737562 14.073562-47.990234 0l-.0098 53.914062.0098 23.839848v2.24609c5.796028 4.23685 11.26652 6.77107 16.441406 8 4.788428.80464 9.839135.82244 15.169922 0 5.888923-1.40774 11.331043-4.33516 16.378906-8 13.133613-10.069757 29.570491-16.176454 47.992188 0v-80c-4.37878-3.845074-12.782742-6.417942-18.490234-8-4.936472-1.574907-10.191722-.918364-15.484375 0z" fill="url(#a)" transform="scale(.03307292)"/></svg>
